client/web/src/Assets/images/technical.svg

<?xml version="1.0" encoding="utf-8"?>
<svg width="86px" height="91px" viewBox="0 0 86 91" version="1.1" xmlns:xlink="http://www.w3.org/1999/xlink" xmlns="http://www.w3.org/2000/svg">
  <g id="Group">
    <path d="M103.212 14.9545L68.703 14.9545L68.703 11.2515L69.8061 6.12424L68.5455 0L61.6121 0L60.3515 6.12424L61.4545 11.2515L61.4545 14.9545L52.4727 14.9545C53.5758 13.2455 54.2061 11.3939 54.2061 9.4C54.2061 5.55455 51.8424 2.13636 48.0606 0.284848C47.2727 -0.142424 46.3273 0.427273 46.3273 1.28182L46.4848 8.68788L42.5455 10.2545L38.6061 8.8303L38.4485 1.42424C38.4485 0.569697 37.503 0.142424 36.7152 0.569697C32.9333 2.42121 30.7273 5.98182 30.7273 9.82727C30.7273 11.8212 31.3576 13.6727 32.4606 15.2394L0 15.2394L0 84.4576L42.8606 84.4576L35.297 91.8636C34.6667 92.5758 35.1394 93.7151 36.0848 93.7151L67.1273 93.7151C68.2303 93.7151 68.703 92.5758 67.9151 91.8636L60.3515 84.4576L103.212 84.4576L103.212 14.9545ZM48.0606 64.9454C51.8424 63.0939 54.2061 59.6758 54.2061 55.8303C54.2061 52.2697 52.1576 48.8515 48.8485 46.8576L48.8485 22.6455L61.4545 22.6455L61.4545 37.1727L60.5091 37.1727C59.8788 37.1727 59.2485 37.6 59.2485 38.3121L59.2485 41.8727L59.0909 41.8727C59.0909 41.8727 59.0909 41.8727 59.0909 41.8727C58.4606 41.8727 57.8303 42.3 57.8303 43.0121L57.8303 57.6818C57.8303 61.2424 60.9818 64.0909 65.0788 64.0909C69.0182 64.0909 72.3273 61.2424 72.3273 57.6818L72.3273 43.0121C72.3273 42.4424 71.8545 42.0152 71.2242 41.8727L71.0667 41.8727L71.0667 38.3121C71.0667 37.7424 70.5939 37.1727 69.8061 37.1727L68.8606 37.1727L68.8606 22.6455L94.5454 22.6455L94.5454 70.3576L8.66667 70.3576L8.66667 22.7879L36.4 22.7879L36.4 46.8576C32.9333 48.7091 30.8848 51.9848 30.8848 55.6879C30.8848 59.5333 33.0909 63.0939 36.8727 64.9454C37.6606 65.3727 38.6061 64.803 38.6061 64.0909L38.7636 56.6848L42.703 55.2606L46.6424 56.8273L46.4848 64.2333C46.1697 64.803 47.2727 65.3727 48.0606 64.9454ZM63.8182 37.3152L63.8182 12.2485L66.497 12.2485L66.497 37.3152C64.7636 37.3152 65.3939 37.3152 63.8182 37.3152ZM69.9636 44.1515L69.9636 57.8242C69.9636 60.2455 67.7576 62.097 65.0788 62.097C62.4 62.097 60.1939 60.103 60.1939 57.8242L60.1939 44.1515C70.1212 44.1515 69.9636 44.1515 69.9636 44.1515ZM61.6121 42.0152L61.6121 39.4515C64.1333 39.4515 66.0242 39.4515 68.5455 39.4515L68.5455 42.0152L61.6121 42.0152ZM63.503 2.27879L66.497 2.27879L67.2849 6.26667L66.497 10.2545L63.503 10.2545L62.7152 6.26667L63.503 2.27879ZM61.4545 20.6515L48.8485 20.6515L48.8485 18.2303C49.4788 17.9455 49.9515 17.5182 50.4242 17.0909L61.297 17.0909L61.4545 20.6515ZM36.0848 3.27576L36.0848 9.25758C36.0848 9.68485 36.4 10.1121 36.8727 10.2545L42.0727 12.2485C42.3879 12.3909 42.703 12.3909 43.0182 12.2485L48.0606 10.2545C48.5333 10.1121 48.6909 9.68485 48.6909 9.25758L48.5333 3.27576C50.4242 4.84242 51.6848 7.12121 51.6848 9.4C51.6848 12.3909 49.9515 15.2394 46.9576 16.8061C46.6424 16.9485 46.3273 17.3758 46.3273 17.803L46.3273 47.7121C46.3273 48.1394 46.4848 48.4242 46.9576 48.7091C49.9515 50.2758 51.6848 52.9818 51.6848 56.1152C51.6848 58.5364 50.4242 60.6727 48.5333 62.2394L48.6909 56.2576C48.6909 55.8303 48.3758 55.403 48.0606 55.2606L43.0182 53.2667C42.703 53.1242 42.3879 53.1242 42.0727 53.2667L37.0303 55.2606C36.5576 55.403 36.2424 55.8303 36.2424 56.2576L36.2424 62.2394C34.3515 60.6727 33.2485 58.3939 33.2485 55.9727C33.2485 52.9818 35.1394 50.1333 38.1333 48.7091C38.4485 48.5667 38.7636 48.1394 38.7636 47.7121L38.7636 17.803C38.7636 17.3758 38.4485 17.0909 38.1333 16.8061C35.1394 15.3818 33.2485 12.5333 33.2485 9.54242C33.0909 7.12121 34.1939 4.84242 36.0848 3.27576ZM64.2909 91.2939L38.7636 91.2939L46.0121 84.3152L57.0424 84.3152L64.2909 91.2939ZM100.848 82.0364C90.9212 82.0364 5.51515 82.0364 2.36364 82.0364L2.36364 17.0909L34.5091 17.0909C35.1394 17.5182 35.6121 17.9455 36.4 18.3727L36.4 20.6515L6.30303 20.6515L6.30303 72.6364L96.9091 72.6364L96.9091 20.6515L68.703 20.6515L68.703 17.0909L100.691 17.0909L100.691 82.0364L100.848 82.0364Z" transform="translate(0.47272727 0.28484848)" id="Shape" fill="#000100" stroke="none" />
    <path d="M4.25455 0C1.89091 0 0 1.70909 0 3.84545C0 5.98182 1.89091 7.69091 4.25455 7.69091C6.61818 7.69091 8.50909 5.98182 8.50909 3.84545C8.50909 1.70909 6.61818 0 4.25455 0ZM4.25455 5.41212C3.30909 5.41212 2.36364 4.7 2.36364 3.70303C2.36364 2.70606 3.15152 1.99394 4.25455 1.99394C5.35758 1.99394 6.14545 2.70606 6.14545 3.70303C6.14545 4.7 5.2 5.41212 4.25455 5.41212Z" transform="translate(47.745453 73.91818)" id="Shape" fill="#000100" stroke="none" />
    <path d="M0 0L2.36364 0L2.36364 12.6758L0 12.6758L0 0Z" transform="translate(64.29091 46.715153)" id="Rectangle" fill="#000100" stroke="none" />
  </g>
</svg>

<?xml version="1.0" encoding="utf-8"?>
<!-- Generator: Adobe Illustrator 25.4.1, SVG Export Plug-In . SVG Version: 6.00 Build 0)  -->
<svg version="1.1" id="Calque_1" xmlns="http://www.w3.org/2000/svg" xmlns:xlink="http://www.w3.org/1999/xlink" x="0px" y="0px"
	 viewBox="0 0 103.21 93.72" style="enable-background:new 0 0 103.21 93.72;" xml:space="preserve">
<style type="text/css">
	.st0{fill:#000100;}
</style>
<g id="Technical">
	<path id="Shape" class="st0" d="M103.21,14.95H68.7v-3.7l1.1-5.13L68.55,0h-6.93l-1.26,6.12l1.1,5.13v3.7h-8.98
		c1.1-1.71,1.73-3.56,1.73-5.55c0-3.85-2.36-7.26-6.15-9.12c-0.79-0.43-1.73,0.14-1.73,1l0.16,7.41l-3.94,1.57l-3.94-1.42
		l-0.16-7.41c0-0.85-0.95-1.28-1.73-0.85c-3.78,1.85-5.99,5.41-5.99,9.26c0,1.99,0.63,3.85,1.73,5.41H0v69.22h42.86l-7.56,7.41
		c-0.63,0.71-0.16,1.85,0.79,1.85h31.04c1.1,0,1.58-1.14,0.79-1.85l-7.56-7.41h42.86V14.95z M48.06,64.95
		c3.78-1.85,6.15-5.27,6.15-9.12c0-3.56-2.05-6.98-5.36-8.97V22.65h12.61v14.53h-0.95c-0.63,0-1.26,0.43-1.26,1.14v3.56h-0.16l0,0
		c-0.63,0-1.26,0.43-1.26,1.14v14.67c0,3.56,3.15,6.41,7.25,6.41c3.94,0,7.25-2.85,7.25-6.41V43.01c0-0.57-0.47-1-1.1-1.14h-0.16
		v-3.56c0-0.57-0.47-1.14-1.26-1.14h-0.95V22.65h25.68v47.71H8.67V22.79H36.4v24.07c-3.47,1.85-5.52,5.13-5.52,8.83
		c0,3.85,2.21,7.41,5.99,9.26c0.79,0.43,1.73-0.14,1.73-0.85l0.16-7.41l3.94-1.42l3.94,1.57l-0.16,7.41
		C46.17,64.8,47.27,65.37,48.06,64.95z M63.82,37.32V12.25h2.68v25.07C64.76,37.32,65.39,37.32,63.82,37.32z M69.96,44.15v13.67
		c0,2.42-2.21,4.27-4.88,4.27c-2.68,0-4.88-1.99-4.88-4.27V44.15C70.12,44.15,69.96,44.15,69.96,44.15z M61.61,42.02v-2.56
		c2.52,0,4.41,0,6.93,0v2.56H61.61z M63.5,2.28h2.99l0.79,3.99l-0.79,3.99H63.5l-0.79-3.99L63.5,2.28z M61.45,20.65H48.85v-2.42
		c0.63-0.28,1.1-0.71,1.58-1.14H61.3L61.45,20.65z M36.08,3.28v5.98c0,0.43,0.32,0.85,0.79,1l5.2,1.99c0.32,0.14,0.63,0.14,0.95,0
		l5.04-1.99c0.47-0.14,0.63-0.57,0.63-1l-0.16-5.98c1.89,1.57,3.15,3.85,3.15,6.12c0,2.99-1.73,5.84-4.73,7.41
		c-0.32,0.14-0.63,0.57-0.63,1v29.91c0,0.43,0.16,0.71,0.63,1c2.99,1.57,4.73,4.27,4.73,7.41c0,2.42-1.26,4.56-3.15,6.12l0.16-5.98
		c0-0.43-0.32-0.85-0.63-1l-5.04-1.99c-0.32-0.14-0.63-0.14-0.95,0l-5.04,1.99c-0.47,0.14-0.79,0.57-0.79,1v5.98
		c-1.89-1.57-2.99-3.85-2.99-6.27c0-2.99,1.89-5.84,4.88-7.26c0.32-0.14,0.63-0.57,0.63-1V17.8c0-0.43-0.32-0.71-0.63-1
		c-2.99-1.42-4.88-4.27-4.88-7.26C33.09,7.12,34.19,4.84,36.08,3.28z M64.29,91.29H38.76l7.25-6.98h11.03L64.29,91.29z
		 M100.85,82.04c-9.93,0-95.33,0-98.48,0V17.09h32.15c0.63,0.43,1.1,0.85,1.89,1.28v2.28H6.3v51.98h90.61V20.65H68.7v-3.56h31.99
		v64.95H100.85z"/>
	<path id="Shape_00000070086214900424246350000004706047490510713999_" class="st0" d="M51.53,73.63c-2.36,0-4.25,1.71-4.25,3.85
		c0,2.14,1.89,3.85,4.25,3.85c2.36,0,4.25-1.71,4.25-3.85C55.78,75.34,53.89,73.63,51.53,73.63z M51.53,79.05
		c-0.95,0-1.89-0.71-1.89-1.71s0.79-1.71,1.89-1.71s1.89,0.71,1.89,1.71S52.47,79.05,51.53,79.05z"/>
	<path id="Rectangle" class="st0" d="M63.82,46.43h2.36v12.68h-2.36V46.43z"/>
</g>
</svg>
